assets/cards-tab/Asset/Visa-Horizontal.svg

<svg width="36" height="22" viewBox="0 0 36 22" fill="none" xmlns="http://www.w3.org/2000/svg">
<path d="M15.6064 16.7999H12.6689L14.5048 5.20703H17.4426L15.6064 16.7999ZM10.1976 5.20703L7.39714 13.1807L7.06576 11.4636L7.06606 11.4643L6.07763 6.25083C6.07763 6.25083 5.95811 5.20703 4.68417 5.20703H0.0543871L6.10352e-05 5.40332C6.10352e-05 5.40332 1.41586 5.70598 3.0728 6.72838L5.62491 16.8002H8.68557L13.3591 5.20703H10.1976ZM33.3028 16.7999H36.0001L33.6483 5.20672H31.287C30.1965 5.20672 29.9309 6.07066 29.9309 6.07066L25.5499 16.7999H28.612L29.2244 15.0779H32.9587L33.3028 16.7999ZM30.0704 12.6991L31.6138 8.36076L32.4822 12.6991H30.0704ZM25.7795 7.99484L26.1988 5.50534C26.1988 5.50534 24.9052 4.99988 23.5567 4.99988C22.099 4.99988 18.6372 5.6545 18.6372 8.83769C18.6372 11.8327 22.7002 11.8699 22.7002 13.443C22.7002 15.0162 19.0558 14.7343 17.8531 13.7423L17.4164 16.3453C17.4164 16.3453 18.728 16.9999 20.7321 16.9999C22.7367 16.9999 25.7608 15.9334 25.7608 13.0309C25.7608 10.0167 21.6613 9.73606 21.6613 8.42557C21.6616 7.11477 24.5225 7.28315 25.7795 7.99484Z" fill="#D1DAE6"/>
<path d="M7.06609 11.464L6.07766 6.25059C6.07766 6.25059 5.95814 5.20679 4.6842 5.20679H0.0544176L9.15527e-05 5.40308C9.15527e-05 5.40308 2.22534 5.87692 4.35975 7.65225C6.4006 9.34912 7.06609 11.464 7.06609 11.464Z" fill="#E6A540"/>
</svg>

<svg xmlns="http://www.w3.org/2000/svg" width="36" height="22" fill="none" viewBox="0 0 36 22"><path fill="#d1dae6" d="M15.606 16.8H12.67l1.836-11.593h2.938zM10.198 5.207l-2.8 7.974-.332-1.717-.988-5.213s-.12-1.044-1.394-1.044H.054L0 5.403s1.416.303 3.073 1.325L5.625 16.8h3.06L13.36 5.207zM33.303 16.8H36L33.648 5.207h-2.361c-1.09 0-1.356.864-1.356.864L25.55 16.8h3.062l.612-1.722h3.735zm-3.233-4.1 1.544-4.34.868 4.34zm-4.29-4.705.419-2.49S24.905 5 23.557 5c-1.458 0-4.92.654-4.92 3.838 0 2.995 4.063 3.032 4.063 4.605s-3.644 1.291-4.847.3l-.437 2.602s1.312.655 3.316.655c2.005 0 5.029-1.067 5.029-3.97 0-3.013-4.1-3.294-4.1-4.604s2.861-1.143 4.118-.431"/><path fill="#e6a540" d="m7.066 11.464-.988-5.213s-.12-1.044-1.394-1.044H.054L0 5.403s2.225.474 4.36 2.25c2.04 1.696 2.706 3.811 2.706 3.811"/></svg>
